X:1005
T:Scottische au stockfish
C:Daniel Thonon
Z:Transcription, chords:Mike Long
M:4/4
L:1/8
K:C
"Am"ABcd e2ef|"Am"edce "G/Dm"d2d2|"Am"e2e2 A2A2|"G"Bcdc B2B2|\
"Am"ABcd e2ef|
"Am"edce "G/Dm"d2d2|"Am"e2e2 A2Ac|[1 "G"BAGB "Am"A4:|[2 "G"BAGB "Am"A3\
|:e|\
"Am"e2e2 g3e|"G"d2c2 d3d|"Am/Dm"d2e2 A2A2|
"G"Bcdc B3e|\
"Am"e2e2 g3e|"G"d2c2 d3d|"F"d2e2 A2Ac|[1 "G"BAGB "Am"A3:|[2 "G"BAGB "Am"A4|]
|:"Am"e2A2 A2Ac|"G"B2G2 "Am"A4|"Am"ABcd e2eg|"Dm"d2cd "Em"e2e2|\
"Am"e2A2 A2Ac|\
"G"B2G2 "Am"A2A2|"Am"ABcd e2dc|"G"B2G2 "Am"A4:|
|:"Am"A2AA c2c2|A2AA c2c2|\
"G"B2BB d2d2|"Em"cdec d2d2|\
"Am"A2AA c2c2|"(F)"A2AA c2c2|"G"B2BB d2B2|"C"c2"G"B2 "Am"A4:|
